X:1
T:Title
%%score 1 { 2 | 3 }
L:1/8
Q:1/4=95
M:2/4
K:Eb
V:1 treble nm="Grand Piano, Soprano"
V:2 bass nm="Choir Pad, The Swelling of Jordan"
V:3 bass 
V:1
 [EG]2 [EG]>[EG] | [GB]2 [FA][EG] | [DF]2 [DG]>[DF] | [DF]2 E2 | [EA]2 [EA]>[EA] | %5
w: By~Robert~Lowry * *|||||
 [EA]2 [EG]>[EG] | [EB]2 [DA][EG] | [DF]4 | [EG]2 [EG]>[EG] | [GB]2 [FA][EG] | [DF]2 [EG]>[FA] | %11
w: ||||||
 [Ac]2 [GB]2 | [Ac]2 [Ac]>[Ac] | [GB]2 [EG]E | [DF]2 [DG]>[DF] | E4 | [EG]2 [EG]>[EG] | %17
w: ||||||
 [Ec]2 [EG]>[EG] | [FB]2 [FB]>[FB] | [GB]2 [EG]2 | [EG]2 [FG]>[FG] | [EG]2 [EA]>[EA] | %22
w: |||||
 [EG]2 [DF]>[CE] | [CE]2 [=B,D]2 | [CE]2 [EG]>[EG] | [Ec]2 [EG]>[EG] | [FA]2 [DF]>[FA] | %27
w: |||||
 [FA]2 [EG]2 | [Ec]2 [Ad][Ad] | [Ge]4 | [Ac]2 [Ad][Ad] | [Ge]4 | [Ee]2 [Ed][Ec] | [EB]2 [FA][EG] | %34
w: |||||||
 [DF]2 [DG]>[DF] | [DF]2 E2- | E4- | E2 z2 |] %38
w: ||||
V:2
 B,2 B,>B, | B,2 B,B, | A,2 A,>A, | A,2 G,2 | C2 C>C | C2 B,>[K:bass]B, | B,2 B,B, | B,4 | %8
 B,2 B,>B, | E2 B,B, | B,2 B,>[K:treble]D | E2 E2 | E2 E>E | E2[K:bass] B,G, | A,2 B,>A, | G,4 | %16
 C2 C>C | G,2 C>C | D2 D>D | E2[K:bass] B,2 | B,2 =B,>B, | C2 C>C | B,2 A,>G, | G,2 G,2 | %24
 G,2[K:treble] C>C | G,2 C>C | D2[K:bass] B,>B, | B,2 B,2 | A,2 B,B, | B,2 E2 | E2 B,B, | B,2 _D2 | %32
 C2 B,A, | G,2 B,B, | A,2 B,>A, | A,2 G,2- | G,4- | G,2 z2 |] %38
V:3
 E,2 E,>E, | E,2 D,E, | B,,2 B,,>B,, | B,,2 E,2 | A,,2 A,,>A,, | E,2 E,>E, | G,2 F,E, | B,,4 | %8
 E,2 E,>E, | E,2 D,E, | B,,2 B,,>B,, | E,2 E,2 | A,,2 A,,>C, | E,2 E,E, | B,,2 B,,>B,, | E,4 | %16
 C,2 C,>C, | C,2 C,>C, | B,,2 B,,>B,, | E,2 E,2 | E,2 D,>D, | C,2 A,,>A,, | B,,2 B,,>C, | %23
 G,,2 G,,2 | C,2 C,>C, | C,2 C,>C, | B,,2 B,,>B,, | E,2 E,2 | z2 F,F, | E,4 | A,2 F,F, | E,4 | %32
 E,2 E,E, | E,2 D,E, | B,,2 B,,>B,, | B,,2 E,2- | E,4- | E,2 z2 |] %38

